!! 00000] TT[WS
!!!OTL: Canjun cui gongrong
!!!ARE: Asia, China, Shanxi Heshun
!! Ethnic Group: Han
!! WI, 279 (1)
!!!SCT: J0333
!!!YEM: Copyright 1995, estate of Helmut Schaffrath.
**kern
*ICvox
*Ivox
*M2/4
*k[f#]
*G:
{4a
8a
8b
=1
8a
8g
8e
8g
=2
4a
8b
8g
=3
2a}
=4
{4d
8d
8e
=5
8a
8g
8f#
8e
=6
4g
8a
8e
=7
2g}
=8
{8g
8a
8b
8dd
=9
4.a
8b
=10
8d
8e
8g
8f#
=11
2e}
=12
{4e
8e
8g
=13
8e
8d
8c
8B
=14
2d}
=15
{8e
8a
8f#
8e
=16
8d
8d
8e
8B
=17
2d}
==
!!!AGN: Xiaodiao. Xinminge, Xuanchuan
!! Neue Text. Politische Liede
!!!ONB: ESAC (Essen Associative Code) Database: CHINA
!!!AMT: simple duple
!!!AIN: vox
!!!EED: Helmut Schaffrath
!!!EEV: 1.0
*-
